X: 21
T: Bourough Fair
%%VWML:Wrights-3753-p11-0
F: http://www.vwml.org/record/Wrights/3753/p11
%R:
B: Daniel Wright "Wright's Compleat Collection of Celebrated Country Dances" 1740 p.11
S: http://library.efdss.org/cgi-bin/dancebooks.cgi
Z: 2014 John Chambers <jc:trillian.mit.edu>
M: 3/2
L: 1/4
K: Bb
%-------------------------
[|\
B,2 DF BA/G/ | FE DC B,2 | fe/d/ cB AG | FG AB c2 |\
ed/c/ dE D2 | dc/B/ cD C2 | cB/A/ BA/G/ F/E/D/C/ | B,/C/D/E/ F/G/A/B B2 |]
[|\
fa gf ed | F_A GF ED | eg fe dc | EG FE C2 |\
B,D F/_A/G/F/ GE | CE G/B/A/G/ AF | dc/B/ cA BA/G/ | FE DC B,2 |] %-------------------------
%%begintext align
%% The 1st Cu. lead down the middle cast up behind the
%% 3d Cu. lead thro' the 2d Cu. & cast off .| the 2d Cu. do
%% the same :| 1st Cu. cross half figure thro' the 2d Cu. &
%% turn Partners in the 2d Cu. Place .| The 1st Man go
%% Round the 3d Man & the 1st Wo. round the 2d Man then
%% the 1st Man go round the 2d Man & the 1st Wo. round
%% The 3d Man & turn one another in the 2d Cu. Place.
%%endtext
%------------------------- %%sep 2 4 300
T: Salt Fish
T: Longways for as many as will.
%R: reel
B: Daniel Wright "Wright's Compleat Collection of Celebrated Country Dances" 1740 p.11
S: http://library.efdss.org/cgi-bin/dancebooks.cgi
Z: 2014 John Chambers <jc:trillian.mit.edu>
M: C|
L: 1/8
K: A
%-------------------------
cB |\
A3B ABcd | fgaf e2c2 | d3f ecBA | G2 B4 Bc |\
d3e fgaf | ecBA G3B | AcBd ceBd | c2 A4 |]
a2 |\
ecAc e3f | e2A2 cdec | dcde fgab | g2 e4 dc |\
dcde fgac | dcBA GBeB | ceac Bcde | c2 A4 |]
%-------------------------
%%begintext align
%% The 1st Cu. cast of two Cu. and turn in the 3d Cu. Place .|
%% then cast up two Cu. & turn at Top :| 1st Cu. cross over &
%% half figure thro' the 2d Cu. .| then lead thro' on the Mens sides
%% and then on the Wo. side & the 1st Man go round the 2d Man &
%% 1st Wo. round the 3d Wo. into the 2d Cu. Place :#: The 1st Man
%% turn 3d Wo. & 1st Wo. turn the 2d Man & turn Partners .|
%% The 1st Man turn the 2d Wo. & the 1st Wo. the 3d Man & turn
%% Partners :| 1st & 2d Cu. right & left .| 1st Cu. lead thro' the
%% 3d. Cu. cast up & lead thro' the 2d Cu. & cast off.
%%endtext
%%center A double Dance.
%-------------------------
%%sep 2 4 300
